assets/symbols/mulberry/this_month.svg

<svg height="850.394" viewBox="0 0 850.394 850.394" width="850.394" xmlns="http://www.w3.org/2000/svg"><path d="m283.42 710.54h71.2v71.2h-71.2zm71.2 0h71.21v71.2h-71.21zm71.21 0h71.2v71.2h-71.2zm71.2 0h71.21v71.2h-71.21z" fill="#fff"/><path d="m497.03 639.33h71.21v71.21h-71.21zm-71.2 0h71.2v71.21h-71.2zm-71.21 0h71.21v71.21h-71.21zm-71.2 0h71.2v71.21h-71.2zm0-71.2h71.2v71.2h-71.2zm71.2 0h71.21v71.2h-71.21zm71.21 0h71.2v71.2h-71.2zm71.2 0h71.21v71.2h-71.21zm0-70.98h71.21v70.979h-71.21zm-71.2 0h71.2v70.979h-71.2zm-71.21 0h71.21v70.979h-71.21zm-71.2 0h71.2v70.979h-71.2z" fill="#fff"/><path d="m568.24 496.92h-284.82v-62.51h284.94v62.74h-.12z" fill="#ed1e29"/><g fill="none" stroke="#000"><path d="m283.42 496.92h284.82v284.82h-284.82v-284.59m0 213.39h284.82m-284.82-71.21h284.82m-284.82-71.2h284.82m-71.21-71.21v284.82m-71.2-284.82v284.82m-71.21-284.82v284.82" stroke-width="19.089"/><path d="m283.42 496.92v-62.51h284.94v62.74h-284.94z" stroke-width="21"/><path d="m294.92 419.15v11.15m25.64-11.15v11.15m26.26-11.11v11.16m25.64-11.07v11.15m26.26-10.98v11.16m27.11-11.08v11.15m25.64-11.15v11.15m26.26-11.1v11.15m25.64-11.07v11.15m26.25-10.98v11.16m27.4-11.79v11.15" stroke-linecap="round" stroke-linejoin="round" stroke-width="19.089"/></g><g stroke="#000" stroke-width="28"><path d="m426.743 66.642v307.197" fill="#fff"/><path d="m516.588 273.406-90.181 102.385-90.149-102.553" fill="none"/></g><path d="m0 0h850.394v850.394h-850.394z" fill="none"/></svg>

<svg xmlns="http://www.w3.org/2000/svg" width="850.394" height="850.394" viewBox="0 0 850.394 850.394" overflow="visible"><path fill="#fff" d="M283.42 710.54h71.2v71.2h-71.2zM354.62 710.54h71.21v71.2h-71.21zM425.83 710.54h71.2v71.2h-71.2zM497.03 710.54h71.21v71.2h-71.21z"/><path fill="#fff" d="M497.03 639.33h71.21v71.21h-71.21zM425.83 639.33h71.2v71.21h-71.2zM354.62 639.33h71.21v71.21h-71.21zM283.42 639.33h71.2v71.21h-71.2zM283.42 568.13h71.2v71.2h-71.2zM354.62 568.13h71.21v71.2h-71.21zM425.83 568.13h71.2v71.2h-71.2zM497.03 568.13h71.21v71.2h-71.21zM497.03 497.15h71.21v70.979h-71.21zM425.83 497.15h71.2v70.979h-71.2zM354.62 497.15h71.21v70.979h-71.21zM283.42 497.15h71.2v70.979h-71.2z"/><path fill="#ed1e29" d="M568.24 496.92H283.42v-62.51h284.94v62.74h-.12z"/><g fill="none" stroke="#000"><path stroke-width="19.089" d="M283.42 496.92h284.82v284.82H283.42V497.15M283.42 710.54h284.82M283.42 639.33h284.82M283.42 568.13h284.82M497.03 496.92v284.82M425.83 496.92v284.82M354.62 496.92v284.82"/><path stroke-width="21" d="M283.42 496.92v-62.51h284.94v62.74H283.42z"/><path stroke-width="19.089" stroke-linecap="round" stroke-linejoin="round" d="M294.92 419.15v11.15M320.56 419.15v11.15M346.82 419.19v11.16M372.46 419.28v11.15M398.72 419.45v11.16M425.83 419.53v11.15M451.47 419.53v11.15M477.73 419.58v11.15M503.37 419.66v11.15M529.62 419.83v11.16M557.02 419.2v11.15"/></g><g stroke="#000" stroke-width="28"><path fill="#fff" d="M426.743 66.642v307.197"/><path fill="none" d="M516.588 273.406l-90.181 102.385-90.149-102.553"/></g><path fill="none" d="M0 0h850.394v850.394H0z"/></svg>
